src/typography.svg

<svg width="61" height="43" viewBox="0 0 61 43" fill="none" xmlns="http://www.w3.org/2000/svg">
<path d="M47.1045 2.2832L60.0742 41.3555H52.082L49.8984 34.2754L49.79 33.9219H34.2119L34.1035 34.2764L31.9482 41.3555H24.4014L37.1807 2.2832H47.1045ZM41.4531 10.1885L36.2842 27.1221L36.0869 27.7686H47.918L47.7188 27.1221L42.5215 10.1875L42.4131 9.83398H41.5615L41.4531 10.1885Z" stroke="#1D70B8"/>
<path d="M25.5518 1.2832L25.666 1.62598L38.9678 41.6982L39.1855 42.3555H29.0693L28.9609 42.0029L26.7783 34.9219H12.6797L10.5234 42.001L10.416 42.3555H0.749023L0.962891 41.7002L14.0693 1.62793L14.1816 1.2832H25.5518ZM15.1641 26.7686H24.291L19.7148 11.8594L15.1641 26.7686Z" fill="#1D70B8" stroke="#1D70B8"/>
</svg>

<svg width="61" height="43" fill="none" xmlns="http://www.w3.org/2000/svg">
  <path
    d="m47.1 2.28 12.97 39.08h-7.99l-2.18-7.08-.11-.36H34.21l-.1.36-2.16 7.08H24.4L37.18 2.28h9.92Zm-5.65 7.9-5.17 16.94-.2.65h11.84l-.2-.65-5.2-16.93-.1-.36h-.86l-.1.36Z"
    stroke="#1D70B8"
  />
  <path
    d="m25.55 1.28.12.35 13.3 40.07.22.66H29.07l-.1-.36-2.2-7.08H12.69L10.52 42l-.1.36H.75l.21-.66 13.1-40.07.12-.35h11.37ZM15.16 26.77h9.13l-4.58-14.91-4.55 14.9Z"
    fill="#1D70B8"
    stroke="#1D70B8"
  />
</svg>
